public/img/spa-icon.svg

<svg width="48" height="48" viewBox="0 0 48 48" fill="none" xmlns="http://www.w3.org/2000/svg">
<path d="M9.06023 31.28C7.91357 31.28 6.8069 31.14 5.74023 30.86C4.6869 30.5667 3.8269 30.1933 3.16023 29.74L4.46023 26.82C5.0869 27.22 5.8069 27.5533 6.62023 27.82C7.4469 28.0733 8.2669 28.2 9.08023 28.2C9.6269 28.2 10.0669 28.1533 10.4002 28.06C10.7336 27.9533 10.9736 27.82 11.1202 27.66C11.2802 27.4867 11.3602 27.2867 11.3602 27.06C11.3602 26.74 11.2136 26.4867 10.9202 26.3C10.6269 26.1133 10.2469 25.96 9.78023 25.84C9.31357 25.72 8.79357 25.6 8.22023 25.48C7.66023 25.36 7.09357 25.2067 6.52023 25.02C5.96023 24.8333 5.4469 24.5933 4.98023 24.3C4.51357 23.9933 4.13357 23.6 3.84023 23.12C3.5469 22.6267 3.40023 22.0067 3.40023 21.26C3.40023 20.42 3.6269 19.66 4.08023 18.98C4.5469 18.3 5.24023 17.7533 6.16023 17.34C7.08023 16.9267 8.2269 16.72 9.60023 16.72C10.5202 16.72 11.4202 16.8267 12.3002 17.04C13.1936 17.24 13.9869 17.54 14.6802 17.94L13.4602 20.88C12.7936 20.52 12.1336 20.2533 11.4802 20.08C10.8269 19.8933 10.1936 19.8 9.58023 19.8C9.03357 19.8 8.59357 19.86 8.26023 19.98C7.9269 20.0867 7.6869 20.2333 7.54023 20.42C7.39357 20.6067 7.32023 20.82 7.32023 21.06C7.32023 21.3667 7.46023 21.6133 7.74023 21.8C8.03357 21.9733 8.41357 22.12 8.88023 22.24C9.36023 22.3467 9.88023 22.46 10.4402 22.58C11.0136 22.7 11.5802 22.8533 12.1402 23.04C12.7136 23.2133 13.2336 23.4533 13.7002 23.76C14.1669 24.0533 14.5402 24.4467 14.8202 24.94C15.1136 25.42 15.2602 26.0267 15.2602 26.76C15.2602 27.5733 15.0269 28.3267 14.5602 29.02C14.1069 29.7 13.4202 30.2467 12.5002 30.66C11.5936 31.0733 10.4469 31.28 9.06023 31.28ZM17.0895 31V17H23.4895C24.7695 17 25.8695 17.2067 26.7895 17.62C27.7228 18.0333 28.4428 18.6333 28.9495 19.42C29.4561 20.1933 29.7095 21.1133 29.7095 22.18C29.7095 23.2333 29.4561 24.1467 28.9495 24.92C28.4428 25.6933 27.7228 26.2933 26.7895 26.72C25.8695 27.1333 24.7695 27.34 23.4895 27.34H19.2895L21.0495 25.62V31H17.0895ZM21.0495 26.04L19.2895 24.22H23.2495C24.0761 24.22 24.6895 24.04 25.0895 23.68C25.5028 23.32 25.7095 22.82 25.7095 22.18C25.7095 21.5267 25.5028 21.02 25.0895 20.66C24.6895 20.3 24.0761 20.12 23.2495 20.12H19.2895L21.0495 18.3V26.04ZM29.2571 31L35.4371 17H39.3371L45.5371 31H41.4171L36.5771 18.94H38.1371L33.2971 31H29.2571ZM32.6371 28.28L33.6571 25.36H40.4971L41.5171 28.28H32.6371Z" fill="#F28723"/>
</svg>

<svg width="48" height="48" fill="none" xmlns="http://www.w3.org/2000/svg"><path d="M9.06 31.28c-1.146 0-2.253-.14-3.32-.42-1.053-.293-1.913-.667-2.58-1.12l1.3-2.92c.627.4 1.347.733 2.16 1 .827.253 1.647.38 2.46.38.547 0 .987-.047 1.32-.14.334-.107.574-.24.72-.4a.858.858 0 0 0 .24-.6c0-.32-.146-.573-.44-.76-.293-.187-.673-.34-1.14-.46-.466-.12-.986-.24-1.56-.36-.56-.12-1.126-.273-1.7-.46a7.102 7.102 0 0 1-1.54-.72 3.708 3.708 0 0 1-1.14-1.18c-.293-.493-.44-1.113-.44-1.86 0-.84.227-1.6.68-2.28.467-.68 1.16-1.227 2.08-1.64.92-.413 2.067-.62 3.44-.62.92 0 1.82.107 2.7.32.894.2 1.687.5 2.38.9l-1.22 2.94a9.064 9.064 0 0 0-1.98-.8 6.902 6.902 0 0 0-1.9-.28c-.546 0-.986.06-1.32.18-.333.107-.573.253-.72.44-.146.187-.22.4-.22.64 0 .307.14.553.42.74.294.173.674.32 1.14.44.48.107 1 .22 1.56.34.574.12 1.14.273 1.7.46a5.961 5.961 0 0 1 1.56.72c.467.293.84.687 1.12 1.18.294.48.44 1.087.44 1.82 0 .813-.233 1.567-.7 2.26-.453.68-1.14 1.227-2.06 1.64-.906.413-2.053.62-3.44.62Zm8.03-.28V17h6.4c1.28 0 2.38.207 3.3.62.933.413 1.653 1.013 2.16 1.8.506.773.76 1.693.76 2.76 0 1.053-.254 1.967-.76 2.74-.507.773-1.227 1.373-2.16 1.8-.92.413-2.02.62-3.3.62h-4.2l1.76-1.72V31h-3.96Zm3.96-4.96-1.76-1.82h3.96c.826 0 1.44-.18 1.84-.54.413-.36.62-.86.62-1.5 0-.653-.207-1.16-.62-1.52-.4-.36-1.014-.54-1.84-.54h-3.96l1.76-1.82v7.74ZM29.256 31l6.18-14h3.9l6.2 14h-4.12l-4.84-12.06h1.56L33.297 31h-4.04Zm3.38-2.72 1.02-2.92h6.84l1.02 2.92h-8.88Z" fill="#F28723"/></svg>
